src/images/plugins-icon.svg

<svg xmlns="http://www.w3.org/2000/svg" width="119" height="119" fill="none" viewBox="0 0 119 119"><rect width="119" height="119" fill="#F96132" rx="8"/><g clip-path="url(#clip0)"><path fill="#909090" fill-rule="evenodd" d="M35.0514 25.8678L34.3198 101.105C34.3079 102.418 35.2771 103.068 36.4868 102.557L67.7774 89.3417C69.0361 88.8108 70.0466 87.2725 70.0346 85.9068L69.9165 71.9018L74.8293 72.0066L74.9182 88.2985C74.9262 89.8647 73.7631 91.6272 72.3184 92.2351L38.6298 106.407C33.8325 108.425 29.97 105.845 29.9992 100.642L30.4493 26.0762L35.0514 25.8678Z" clip-rule="evenodd"/><path fill="#DDD" fill-rule="evenodd" d="M37.8994 26.7742L37.1678 102.011C37.1545 103.324 38.1252 103.974 39.3348 103.463L70.6241 90.2534C71.8828 89.7225 72.8933 88.1842 72.8813 86.8185L72.7605 72.8082L77.6733 72.913L77.7649 89.2075C77.7742 90.7737 76.6097 92.5362 75.1651 93.1441L41.4765 107.314C36.6792 109.331 32.8167 106.751 32.8459 101.548L33.2947 26.9825L37.8994 26.7742Z" clip-rule="evenodd"/><path fill="#C1C1C1" fill-rule="evenodd" d="M30.4275 26.0482L33.3353 27.0105L37.8405 26.818L35.0721 25.7974L30.4275 26.0482Z" clip-rule="evenodd"/><path stroke="#fff" stroke-linecap="round" stroke-linejoin="round" stroke-width=".937" d="M75.6436 76.7157L75.3209 87.1823C75.2837 88.3675 74.3782 89.7213 73.296 90.2071L39.7747 105.251C38.9993 105.599 37.783 105.517 37.0673 105.06L36.3689 104.62C35.4395 104.037 34.7039 102.678 34.7185 101.584L35.6639 29.1859"/><path fill="#909090" fill-rule="evenodd" d="M73.4298 48.7917C75.3579 48.7917 77.2071 49.5572 78.5707 50.92C79.9342 52.2827 80.7004 54.131 80.7007 56.0583V68.3579C80.7007 69.1688 80.5905 71.1636 80.5905 71.1636C80.5905 71.1636 80.5295 76.3399 73.9158 76.6319C66.8413 76.9504 66.3328 71.6043 66.3328 71.6043C66.3328 71.6043 66.1602 69.4382 66.1602 68.3579V56.0583C66.1602 54.1311 66.9261 52.2828 68.2894 50.92C69.6527 49.5573 71.5018 48.7917 73.4298 48.7917Z" clip-rule="evenodd"/><path fill="#C1C1C1" fill-rule="evenodd" d="M75.0131 48.7917C77.6554 48.7917 79.7931 52.0448 79.7931 56.0583L79.8582 71.9587C79.8582 71.9587 78.1281 75.3259 75.758 76.4142C73.3879 77.5025 70.3897 76.3067 70.3897 76.3067C70.3897 76.3067 70.2251 69.632 70.2251 68.3579V56.0583C70.2278 52.0448 72.3708 48.7917 75.0131 48.7917Z" clip-rule="evenodd"/><path fill="#DDD" fill-rule="evenodd" d="M76.6634 47.9304C78.4108 47.9304 79.8275 51.1848 79.8275 55.1971V67.4966C79.8275 69.2552 79.9882 73.3444 79.9882 73.3444C79.9882 73.3444 79.3031 74.9238 77.7509 75.7759C76.1987 76.628 73.7781 76.7554 73.7781 76.7554L73.502 55.1957C73.502 51.1835 74.916 47.9304 76.6634 47.9304Z" clip-rule="evenodd"/><path fill="#fff" fill-rule="evenodd" d="M76.5391 68.492C76.5391 65.4884 77.0277 63.0503 77.6292 63.0503C78.2307 63.0503 78.7206 65.4844 78.7206 68.492C78.7206 71.4995 78.232 73.9337 77.6292 73.9337C77.0264 73.9337 76.5391 71.4942 76.5391 68.492Z" clip-rule="evenodd"/><path fill="#909090" fill-rule="evenodd" d="M48.7751 36.7697L59.8515 45.2905L63.0276 71.984C63.0276 71.984 61.0917 72.929 57.9714 70.8704L49.3872 66.5304C48.4578 66.0618 47.7063 64.8408 47.7036 63.8015L47.8895 38.1725C47.9055 37.9128 47.9802 37.66 48.1078 37.4331C48.2354 37.2063 48.4127 37.0112 48.6264 36.8626L48.7751 36.7697Z" clip-rule="evenodd"/><path fill="#DDD" fill-rule="evenodd" d="M59.886 45.2854L91.6467 33.3933V56.4581C91.6467 59.1126 89.6337 62.0126 87.1494 62.943L62.9598 72.0001C61.2616 72.6358 59.886 71.6828 59.886 69.8698V45.2854Z" clip-rule="evenodd"/><path fill="#C1C1C1" fill-rule="evenodd" d="M59.8782 45.3237L91.6123 33.3785L81.6154 26.6202C80.5877 25.9247 78.8098 25.7097 77.644 26.1371L48.9372 36.7059C48.2229 36.9713 48.1578 37.5235 48.7912 37.9455L59.8782 45.3237Z" clip-rule="evenodd"/><path fill="#fff" fill-rule="evenodd" d="M62.6645 16.4099C63.3443 16.4056 64.0059 16.6295 64.5433 17.0457L64.4438 36.6052C64.4438 37.7586 63.8184 38.8509 62.6645 38.8509C61.5107 38.8509 60.6529 37.7586 60.6529 36.6052L60.5852 17.1744C60.5852 17.1744 61.5107 16.4099 62.6645 16.4099Z" clip-rule="evenodd"/><path fill="#fff" fill-rule="evenodd" d="M77.2597 11.3823C77.9395 11.378 78.6011 11.6019 79.1386 12.0181L79.039 31.5776C79.039 32.731 78.4136 33.8246 77.2597 33.8246C76.1059 33.8246 75.2481 32.731 75.2481 31.5776L75.1804 12.1468C75.1804 12.1468 76.1059 11.3823 77.2597 11.3823Z" clip-rule="evenodd"/><path fill="#D3D3D3" fill-rule="evenodd" d="M60.6003 17.2114C60.6003 16.5571 61.4886 16.0275 62.5841 16.0275C63.6795 16.0275 64.5757 16.5584 64.5757 17.2114C64.5757 17.8644 63.6874 18.394 62.5841 18.394C61.4807 18.394 60.6003 17.8644 60.6003 17.2114Z" clip-rule="evenodd"/><path fill="#D3D3D3" fill-rule="evenodd" d="M75.1946 12.1839C75.1946 11.5309 76.0829 11 77.1783 11C78.2737 11 79.1633 11.5309 79.1633 12.1839C79.1633 12.8369 78.275 13.3665 77.1783 13.3665C76.0815 13.3665 75.1946 12.8369 75.1946 12.1839Z" clip-rule="evenodd"/><path fill="#909090" fill-rule="evenodd" d="M60.5681 17.7332L60.5987 23.3859C61.1982 23.8496 61.9417 24.0878 62.6992 24.0588C63.9633 24.0017 64.4851 23.4085 64.4851 23.4085L64.5594 17.6894C64.5594 17.6894 64.3311 18.5189 62.6514 18.6689C62.2526 18.7094 61.85 18.6443 61.4843 18.4801C61.1187 18.3158 60.8026 18.0582 60.5681 17.7332V17.7332Z" clip-rule="evenodd"/><path fill="#909090" fill-rule="evenodd" d="M75.1633 12.7055L75.1939 18.3583C75.7931 18.8226 76.5369 19.0608 77.2944 19.0312C78.5585 18.9741 79.0803 18.3808 79.0803 18.3808L79.1547 12.6617C79.1547 12.6617 78.9263 13.4913 77.2466 13.6426C76.8476 13.6831 76.445 13.6178 76.0793 13.4533C75.7135 13.2888 75.3976 13.0309 75.1633 12.7055V12.7055Z" clip-rule="evenodd"/><path fill="#C1C1C1" fill-rule="evenodd" d="M61.77 18.5984L61.6584 23.9711C62.0532 24.0802 62.463 24.125 62.872 24.1038C63.2847 24.042 63.6831 23.9072 64.0485 23.7057L64.0936 18.2321C64.0936 18.2321 63.4802 18.5692 63.0566 18.6409C62.6609 18.7046 61.77 18.5984 61.77 18.5984Z" clip-rule="evenodd"/><path fill="#C1C1C1" fill-rule="evenodd" d="M76.3647 13.5696L76.2532 18.9436C76.648 19.0523 77.0577 19.0971 77.4668 19.0763C77.8795 19.0145 78.2778 18.8797 78.6432 18.6781L78.6883 13.2046C78.6883 13.2046 78.0749 13.5417 77.6513 13.6134C77.2557 13.6771 76.3647 13.5696 76.3647 13.5696Z" clip-rule="evenodd"/><path fill="#DDD" fill-rule="evenodd" d="M62.4552 18.6714C62.6426 18.674 62.8299 18.6625 63.0156 18.6369C63.1834 18.6093 63.3493 18.5707 63.5121 18.5214L63.4949 23.9206C63.3255 24.0166 63.1423 24.086 62.9518 24.1264C62.7662 24.1534 62.5773 24.1499 62.3928 24.1157L62.4552 18.6714Z" clip-rule="evenodd"/><path fill="#DDD" fill-rule="evenodd" d="M77.0495 13.6451C77.2369 13.6477 77.4242 13.6358 77.6098 13.6093C77.7777 13.5817 77.9435 13.5431 78.1064 13.4938L78.0891 18.893C77.9197 18.989 77.7365 19.0584 77.5461 19.0988C77.3604 19.1266 77.1715 19.123 76.9871 19.0882L77.0495 13.6451Z" clip-rule="evenodd"/></g><defs><clipPath id="clip0"><rect width="61.647" height="97" fill="#fff" transform="translate(30 11)"/></clipPath></defs></svg>

<svg fill="none" viewBox="0 0 119 119"><rect width="119" height="119" fill="#F96132" rx="8"/><g clip-path="url(#clip0)"><path fill="#909090" fill-rule="evenodd" d="M35.051 25.868l-.731 75.237c-.012 1.313.957 1.963 2.167 1.452l31.29-13.215c1.26-.531 2.27-2.07 2.258-3.435l-.118-14.005 4.912.105.09 16.291c.007 1.567-1.156 3.33-2.6 3.937l-33.69 14.172c-4.796 2.018-8.659-.562-8.63-5.765l.45-74.566 4.602-.208z" clip-rule="evenodd"/><path fill="#DDD" fill-rule="evenodd" d="M37.9 26.774l-.732 75.237c-.014 1.313.957 1.963 2.167 1.452l31.29-13.21c1.258-.53 2.268-2.069 2.256-3.434l-.12-14.01 4.912.104.092 16.294c.01 1.567-1.155 3.33-2.6 3.937l-33.689 14.17c-4.797 2.017-8.66-.563-8.63-5.766l.449-74.566 4.604-.208z" clip-rule="evenodd"/><path fill="#C1C1C1" fill-rule="evenodd" d="M30.427 26.048l2.908.963 4.505-.193-2.768-1.02-4.645.25z" clip-rule="evenodd"/><path stroke="#fff" stroke-linecap="round" stroke-linejoin="round" stroke-width=".937" d="M75.644 76.716l-.323 10.466c-.037 1.186-.943 2.54-2.025 3.025l-33.521 15.044c-.776.348-1.992.266-2.708-.191l-.698-.44c-.93-.583-1.665-1.942-1.65-3.036l.945-72.398"/><path fill="#909090" fill-rule="evenodd" d="M73.43 48.792a7.272 7.272 0 017.27 7.266v12.3c0 .81-.11 2.806-.11 2.806s-.06 5.176-6.674 5.468c-7.075.318-7.583-5.028-7.583-5.028s-.173-2.166-.173-3.246v-12.3a7.265 7.265 0 017.27-7.266z" clip-rule="evenodd"/><path fill="#C1C1C1" fill-rule="evenodd" d="M75.013 48.792c2.642 0 4.78 3.253 4.78 7.266l.065 15.9s-1.73 3.368-4.1 4.456c-2.37 1.088-5.368-.107-5.368-.107s-.165-6.675-.165-7.95V56.059c.003-4.013 2.146-7.266 4.788-7.266z" clip-rule="evenodd"/><path fill="#DDD" fill-rule="evenodd" d="M76.663 47.93c1.748 0 3.165 3.255 3.165 7.267v12.3c0 1.758.16 5.847.16 5.847s-.685 1.58-2.237 2.432c-1.552.852-3.973.98-3.973.98l-.276-21.56c0-4.012 1.414-7.266 3.161-7.266z" clip-rule="evenodd"/><path fill="#fff" fill-rule="evenodd" d="M76.54 68.492c0-3.004.488-5.442 1.09-5.442.6 0 1.09 2.434 1.09 5.442 0 3.007-.488 5.442-1.09 5.442-.604 0-1.09-2.44-1.09-5.442z" clip-rule="evenodd"/><path fill="#909090" fill-rule="evenodd" d="M48.775 36.77l11.077 8.52 3.176 26.694s-1.936.945-5.057-1.114l-8.584-4.34c-.93-.468-1.68-1.69-1.683-2.729l.185-25.629a1.725 1.725 0 01.737-1.31l.15-.092z" clip-rule="evenodd"/><path fill="#DDD" fill-rule="evenodd" d="M59.886 45.285l31.76-11.892v23.065c0 2.655-2.012 5.555-4.497 6.485L62.96 72c-1.697.636-3.073-.317-3.073-2.13V45.285z" clip-rule="evenodd"/><path fill="#C1C1C1" fill-rule="evenodd" d="M59.878 45.324l31.734-11.945-9.997-6.759c-1.027-.695-2.805-.91-3.971-.483L48.937 36.706c-.714.265-.78.817-.146 1.24l11.087 7.378z" clip-rule="evenodd"/><path fill="#fff" fill-rule="evenodd" d="M62.664 16.41c.68-.004 1.342.22 1.88.636l-.1 19.56c0 1.153-.626 2.245-1.78 2.245-1.153 0-2.011-1.092-2.011-2.246l-.068-19.43s.926-.765 2.08-.765zm14.596-5.028c.68-.004 1.341.22 1.879.636l-.1 19.56c0 1.153-.625 2.247-1.78 2.247-1.153 0-2.01-1.094-2.01-2.247l-.069-19.431s.926-.765 2.08-.765z" clip-rule="evenodd"/><path fill="#D3D3D3" fill-rule="evenodd" d="M60.6 17.211c0-.654.889-1.183 1.984-1.183s1.992.53 1.992 1.183-.889 1.183-1.992 1.183-1.984-.53-1.984-1.183zm14.595-5.027c0-.653.888-1.184 1.983-1.184 1.096 0 1.985.53 1.985 1.184 0 .653-.888 1.183-1.985 1.183-1.096 0-1.983-.53-1.983-1.183z" clip-rule="evenodd"/><path fill="#909090" fill-rule="evenodd" d="M60.568 17.733l.03 5.653c.6.464 1.344.702 2.101.673 1.264-.057 1.786-.65 1.786-.65l.074-5.72s-.228.83-1.908.98a2.286 2.286 0 01-2.083-.936zm14.595-5.027l.03 5.652c.6.465 1.344.703 2.101.673 1.264-.057 1.786-.65 1.786-.65l.075-5.72s-.229.83-1.908.982a2.283 2.283 0 01-2.084-.938z" clip-rule="evenodd"/><path fill="#C1C1C1" fill-rule="evenodd" d="M61.77 18.598l-.112 5.373c.395.11.805.154 1.214.133a3.514 3.514 0 001.177-.398l.045-5.474s-.614.337-1.037.409c-.396.064-1.287-.043-1.287-.043zm14.595-5.028l-.112 5.374c.395.108.805.153 1.214.132a3.511 3.511 0 001.176-.398l.045-5.473s-.613.337-1.037.408c-.395.064-1.286-.043-1.286-.043z" clip-rule="evenodd"/><path fill="#DDD" fill-rule="evenodd" d="M62.455 18.671c.188.003.375-.008.56-.034.168-.028.334-.066.497-.116l-.017 5.4a1.9 1.9 0 01-.543.205 1.714 1.714 0 01-.56-.01l.063-5.445zm14.594-5.026c.188.003.375-.01.56-.036.169-.027.335-.066.497-.115l-.017 5.399a1.92 1.92 0 01-.543.206 1.676 1.676 0 01-.559-.01l.063-5.444z" clip-rule="evenodd"/></g><defs><clipPath id="clip0"><path fill="#fff" d="M0 0h61.647v97H0z" transform="translate(30 11)"/></clipPath></defs></svg>
